X:1
T:Title
%%score { ( 1 3 ) | 2 }
L:1/8
Q:1/4=100
M:4/4
K:C
V:1 treble nm="Grand Piano"
V:3 treble 
V:2 bass 
V:1
 [EG][EG][EG][CE] [EG][FA] [EG]2 | [Gc]2 [Fd]2 [Ec]4 | AAAc [Ec][EG] [EG]2 | [DB]2 [^FA]2 G4 | %4
w: C.~Harold~Lowden * * * * * *||||
 FFFA [FA][EG] [EG]2 | BBBd [Fd][Ec] [Ec]2 | [Ge]>[Gd] [Gc][EG] [FA][Ac] [Ac]2 | %7
w: |||
 [Ge]2 [Fd]2 [Ec]4 | c2 c2 c4 | d2 d2 d4 | [Ge]>[Gd] [Gc][EG] [FA][Ac] [Ac]2 | [Ge]2 [Fd]2 [Ec]4 |] %12
w: |||||
V:2
 [C,C][C,C][C,C][C,G,] [C,C][C,C] [C,C]2 | [E,C]2 [G,B,]2 [C,C]4 | %2
 [F,CF][F,CF][F,CF][F,A,F] [C,G,][C,C] [C,C]2 | [D,G,]2 [D,C]2 [G,B,]4 | %4
 [G,B,D][G,B,D][G,B,D][G,B,F][K:bass] [C,C][C,C] [C,C]2 | %5
 [G,DF][G,DF][G,DF][G,B,F][K:bass] [C,C][C,C] [C,C]2 | [C,C]>[D,B,] [E,C][C,C] [F,C][F,C] [F,C]2 | %7
 [G,C]2 [G,B,]2 [C,C]4 | [C,G,][C,G,][F,A,F][F,A,] [C,G,][C,G,] [C,G,]2 | %9
 [G,B,G][G,B,][K:bass][D,A,][D,C][K:treble] [G,B,G][G,B,][K:bass] [G,B,]2 | %10
 [C,C]>[D,B,] [E,C][C,C] [F,C][F,C] [F,C]2 | [G,C]2 [G,B,]2 [C,C]4 |] %12
V:3
 x8 | x8 | x8 | x8 | x8 | x8 | x8 | x8 | EE z F EE E2 | z G^FA z G G2 | x8 | x8 |] %12

